X:3323
T:Conjewai Polka
M:2/4
L:1/8
R:Polka
A:Hunter Valley, New South Wales, Australia
Z:Transcribed into ABC by John Furlonger
K:D
DF A2|FA B2|AF ED/2E/2|FE E2|DF A2|FA B2|AF EF/2E/2|D4:|
dB BA|dB BA|dA/2d/2 ed/2e/2|fe e2|dB BA|df/2d/2 Ad/2A/2|FA/2F/2 EF
/2E/2|D4:|


